shader_type spatial;

uniform sampler2D tex : repeat_enable;

void fragment() {
}

//void light() {
	// Called for every pixel for every light affecting the material.
	// Uncomment to replace the default light processing function with this one.
//}
